X:38
T:Duncan Davidson
S:Petrie's Third Collection of Strathspey Reels and Country Dances &c.
Z:Steve Wyrick , 7/30/05
N:Petrie's Third Collection, page 15
L:1/8
M:C
R:Strathspey
K:D
D>FA>B AFAB A>FE<F|D>FA>B A<FA<f|e>de<f ddd2:|f>ed<f g>fe<d|c<Ae<A f<Ae<A|
f>ed<f g<fe<d|c>de<f ded<f g>fe<d|c<Ae<A f<Ae<A|f<dg<e a<fb<g|f<de>f ddd2|]
